X: 21658
T: Killoran's
R: reel
M: 4/4
K: Dmajor
|:A>F|(3DDD D>B A>D (3FGA|B>FA>F E>DB,>E|D>CD>B A>DF>A|(3Bcd e>c d2:|
|:(3dcB|A>Bd>e f>d (3ddd|g>ef>d e>d (3Bcd|1 A2 d>e f2 (3def|
g>fe>d (3BcB:|2 A>dd>c d>fa>f|g>fe>c d>B||

